polaris-icons/icons/new-icons/CapitalMajor.svg

<svg width="20" height="20" viewBox="0 0 20 20" fill="none" xmlns="http://www.w3.org/2000/svg">
<path fill-rule="evenodd" clip-rule="evenodd" d="M10.7488 11.9571C13.2936 11.6629 15.25 9.89141 15.25 7.75C15.25 5.40279 12.8995 3.5 10 3.5C7.10051 3.5 4.75 5.40279 4.75 7.75C4.75 9.89141 6.7064 11.6629 9.25121 11.9571C9.25041 11.9713 9.25 11.9856 9.25 12V16.25C9.25 16.6642 9.58579 17 10 17C10.4142 17 10.75 16.6642 10.75 16.25V12C10.75 11.9856 10.7496 11.9713 10.7488 11.9571ZM10 10.5C12.3827 10.5 13.75 8.98823 13.75 7.75C13.75 6.51177 12.3827 5 10 5C7.6173 5 6.25 6.51177 6.25 7.75C6.25 8.98823 7.6173 10.5 10 10.5Z" fill="#4A4A4A"/>
<path fill-rule="evenodd" clip-rule="evenodd" d="M8.5 15C8.5 15.4459 8.41661 15.8724 8.26457 16.2646C7.87236 16.4166 7.44592 16.5 7 16.5C5.067 16.5 3.5 14.933 3.5 13C3.5 12.5541 3.58339 12.1276 3.73543 11.7354C4.12764 11.5834 4.55408 11.5 5 11.5C6.933 11.5 8.5 13.067 8.5 15ZM5 13C6.10457 13 7 13.8954 7 15C5.89543 15 5 14.1046 5 13Z" fill="#4A4A4A"/>
<path fill-rule="evenodd" clip-rule="evenodd" d="M11.5 15C11.5 15.4459 11.5834 15.8724 11.7354 16.2646C12.1276 16.4166 12.5541 16.5 13 16.5C14.933 16.5 16.5 14.933 16.5 13C16.5 12.5541 16.4166 12.1276 16.2646 11.7354C15.8724 11.5834 15.4459 11.5 15 11.5C13.067 11.5 11.5 13.067 11.5 15ZM15 13C13.8954 13 13 13.8954 13 15C14.1046 15 15 14.1046 15 13Z" fill="#4A4A4A"/>
</svg>

<svg viewBox="0 0 20 20" xmlns="http://www.w3.org/2000/svg"><path fill-rule="evenodd" d="M10.749 11.957c2.545-.294 4.501-2.066 4.501-4.207 0-2.347-2.35-4.25-5.25-4.25s-5.25 1.903-5.25 4.25c0 2.141 1.956 3.913 4.501 4.207a.763.763 0 0 0-.001.043v4.25a.75.75 0 0 0 1.5 0v-4.25l-.001-.043Zm-.749-1.457c2.383 0 3.75-1.512 3.75-2.75s-1.367-2.75-3.75-2.75-3.75 1.512-3.75 2.75 1.367 2.75 3.75 2.75Z" fill="#5C5F62"/><path fill-rule="evenodd" d="M8.5 15c0 .446-.083.872-.235 1.265a3.5 3.5 0 0 1-4.53-4.53 3.5 3.5 0 0 1 4.765 3.265Zm-3.5-2a2 2 0 0 1 2 2 2 2 0 0 1-2-2Z" fill="#5C5F62"/><path fill-rule="evenodd" d="M11.5 15c0 .446.083.872.235 1.265a3.5 3.5 0 0 0 4.53-4.53 3.5 3.5 0 0 0-4.765 3.265Zm3.5-2a2 2 0 0 0-2 2 2 2 0 0 0 2-2Z" fill="#5C5F62"/></svg>
